X: 4
T: Old French
I: RJ R-6 D reel
%O: New England
M: C|
Z: Transcribed to abc by Mary Lou Knack
R: reel
K: D
(3ABc |\
"D"d2cd BdAF | DFAd f2ed | "A"cdef gece | "D"defd A2 (3ABc |
"D"d2cd BdAF | DFAd f2ed | "A"cdef gece |1 "D"d2f2 d2 :|[2 "D"d2f2 d2 |]
|: cd | "A"efed c2A2 | AEAc e2dc | "G"BGBd gfed |1 "A"cAce a2 :|2 "A"c2A2 A2 |]
|: cd | "A"efed c2A2 | AEAc e2dc | "G"BGBd gfed |1 "A"cAce a2 :|2 "A"c2A2 B2c2 |]
% text 01/28/02
